; generated by Slic3r 1.2.9 on 2019-03-06 at 15:32:02

; external perimeters extrusion width = 0.50mm
; perimeters extrusion width = 0.85mm
; infill extrusion width = 0.87mm
; solid infill extrusion width = 0.85mm
; top infill extrusion width = 0.85mm

M107
;G28 ; home all axes
;G1 Z5 F5000 ; lift nozzle
G10 P0 S185
T0
M116

G21 ; set units to millimeters
G90 ; use absolute coordinates
M82 ; use absolute distances for extrusion
G92 E0
G1 Z0.300 F6000.000
G1 E-2.00000 F2400.00000
G92 E0
G1 X65.160 Y78.008 F6000.000
G1 E2.00000 F2400.00000
G1 X65.645 Y77.644 E2.05074 F750.000
G1 X66.390 Y77.176 E2.12421
G1 X66.917 Y76.902 E2.17375
G1 X67.508 Y76.645 E2.22760
G1 X68.095 Y76.437 E2.27969
G1 X68.711 Y76.266 E2.33305
G1 X69.349 Y76.136 E2.38747
G1 X69.936 Y76.058 E2.43689
G1 X93.717 Y74.596 E4.42711
G1 X94.566 Y74.561 E4.49808
G1 X95.333 Y74.558 E4.56218
G1 X96.186 Y74.585 E4.63345 F750.000
G1 X97.002 Y74.641 E4.70173
G1 X97.956 Y74.746 E4.78188
G1 X98.785 Y74.871 E4.85192
G1 X99.579 Y75.022 E4.91943
G1 X100.392 Y75.206 E4.98910
G1 X101.276 Y75.444 E5.06556
G1 X102.066 Y75.690 E5.13470
G1 X102.905 Y75.987 E5.20901
G1 X103.715 Y76.310 E5.28183
G1 X104.448 Y76.635 E5.34880
G1 X105.361 Y77.086 E5.43389
G1 X106.223 Y77.561 E5.51615
G1 X106.941 Y77.997 E5.58627
G1 X107.680 Y78.483 E5.66016
G1 X108.337 Y78.953 E5.72766
G1 X109.013 Y79.476 E5.79903
G1 X109.711 Y80.062 E5.87518
G1 X110.363 Y80.655 E5.94877
G1 X111.018 Y81.303 E6.02576
G1 X111.681 Y82.016 E6.10705
G1 X112.326 Y82.773 E6.19012
G1 X112.891 Y83.497 E6.26686
G1 X113.438 Y84.264 E6.34555
G1 X113.935 Y85.023 E6.42135
G1 X114.405 Y85.816 E6.49830
G1 X114.670 Y86.336 E6.54710
G1 X114.925 Y86.937 E6.60164
G1 X115.134 Y87.559 E6.65642
G1 X115.273 Y88.087 E6.70207
G1 X115.376 Y88.615 E6.74698
G1 X115.469 Y89.407 E6.81357
G1 X115.489 Y90.037 E6.86624
G1 X115.461 Y90.691 E6.92092
G1 X115.388 Y91.311 E6.97303
G1 X115.273 Y91.910 E7.02401
G1 X115.142 Y92.417 E7.06774
G1 X114.959 Y92.971 E7.11646
G1 X114.730 Y93.533 E7.16721
G1 X114.456 Y94.091 E7.21908
G1 X114.019 Y94.840 E7.29156
G1 X113.504 Y95.640 E7.37098
G1 X112.984 Y96.378 E7.44641
G1 X112.399 Y97.138 E7.52652
G1 X111.866 Y97.775 E7.59591
G1 X111.232 Y98.473 E7.67468
G1 X110.549 Y99.166 E7.75599
G1 X109.918 Y99.755 E7.82807
G1 X109.364 Y100.236 E7.88930
G1 X108.646 Y100.814 E7.96635
G1 X107.920 Y101.350 E8.04171
G1 X107.139 Y101.878 E8.12046
G1 X106.449 Y102.306 E8.18829
G1 X105.690 Y102.738 E8.26126
G1 X104.916 Y103.140 E8.33405
G1 X104.164 Y103.494 E8.40349
G1 X103.346 Y103.842 E8.47779
G1 X102.606 Y104.124 E8.54391
G1 X101.763 Y104.408 E8.61821
G1 X100.985 Y104.638 E8.68604
G1 X100.233 Y104.832 E8.75088
G1 X99.289 Y105.037 E8.83158
G1 X98.521 Y105.172 E8.89674
G1 X97.598 Y105.298 E8.97449
G1 X96.698 Y105.383 E9.05002
G1 X95.719 Y105.434 E9.13191
G1 X94.892 Y105.444 E9.20098
G1 X93.962 Y105.417 E9.27872
G1 X69.936 Y103.942 E11.28943
G1 X69.398 Y103.872 E11.33473
G1 X68.706 Y103.733 E11.39371
G1 X68.041 Y103.546 E11.45135
G1 X67.270 Y103.258 E11.52014
G1 X66.702 Y102.992 E11.57249
G1 X66.130 Y102.672 E11.62729
G1 X65.578 Y102.309 E11.68247
G1 X65.014 Y101.873 E11.74202
G1 X64.446 Y101.350 E11.80654
G1 X63.965 Y100.829 E11.86576
G1 X63.541 Y100.292 E11.92292
G1 X63.095 Y99.619 E11.99035
G1 X62.757 Y99.001 E12.04918
G1 X62.541 Y98.535 E12.09209
G1 X62.374 Y98.115 E12.12982
G1 X62.153 Y97.441 E12.18905
G1 X61.995 Y96.800 E12.24421
G1 X61.899 Y96.265 E12.28964
G1 X61.843 Y95.817 E12.32736
G1 X61.796 Y95.003 E12.39549
G1 X61.795 Y85.114 E13.22149
G1 X61.843 Y84.184 E13.29925
G1 X61.900 Y83.724 E13.33798
G1 X61.999 Y83.178 E13.38432
G1 X62.153 Y82.559 E13.43765
G1 X62.332 Y82.001 E13.48656
G1 X62.629 Y81.268 E13.55267
G1 X63.052 Y80.454 E13.62926
G1 X63.301 Y80.053 E13.66871
G1 X63.700 Y79.496 E13.72593
G1 X64.125 Y78.987 E13.78133
G1 X64.366 Y78.731 E13.81064
G1 X64.641 Y78.460 E13.84295
G1 X65.102 Y78.056 E13.89412
G1 X65.521 Y78.558 F6000.000
G1 X65.917 Y78.253 E13.93587 F750.000
G1 X66.395 Y77.933 E13.98388
G1 X66.856 Y77.667 E14.02835
G1 X67.476 Y77.366 E14.08591
G1 X68.142 Y77.110 E14.14554
G1 X68.860 Y76.903 E14.20799
G1 X69.452 Y76.782 E14.25846
G1 X69.998 Y76.710 E14.30441
G1 X93.757 Y75.249 E16.29278
G1 X94.579 Y75.216 E16.36152
G1 X95.329 Y75.212 E16.42419
G1 X96.156 Y75.239 E16.49324 F750.000
G1 X96.947 Y75.293 E16.55954
G1 X97.866 Y75.394 E16.63677
G1 X98.677 Y75.517 E16.70522
G1 X99.444 Y75.662 E16.77043
G1 X100.238 Y75.843 E16.83848
G1 X101.090 Y76.072 E16.91219
G1 X101.856 Y76.310 E16.97918
G1 X102.597 Y76.570 E17.04478
G1 X103.386 Y76.882 E17.11560
G1 X104.168 Y77.227 E17.18700
G1 X104.900 Y77.585 E17.25510
G1 X105.634 Y77.978 E17.32463
G1 X106.327 Y78.386 E17.39184
G1 X107.046 Y78.844 E17.46303
G1 X107.751 Y79.334 E17.53474
G1 X108.381 Y79.809 E17.60067
G1 X109.149 Y80.441 E17.68373
G1 X109.864 Y81.084 E17.76405
G1 X110.452 Y81.659 E17.83278
G1 X111.080 Y82.325 E17.90921
G1 X111.649 Y82.981 E17.98177
G1 X112.277 Y83.770 E18.06596
G1 X112.822 Y84.523 E18.14362
G1 X113.320 Y85.276 E18.21904
G1 X113.749 Y85.985 E18.28825
G1 X113.995 Y86.443 E18.33173
G1 X114.212 Y86.918 E18.37535
G1 X114.433 Y87.508 E18.42796
G1 X114.611 Y88.132 E18.48217
G1 X114.731 Y88.722 E18.53248
G1 X114.816 Y89.450 E18.59369
G1 X114.834 Y90.037 E18.64272
G1 X114.809 Y90.637 E18.69285
G1 X114.742 Y91.208 E18.74095
G1 X114.636 Y91.762 E18.78803
G1 X114.513 Y92.235 E18.82886
G1 X114.344 Y92.747 E18.87389
G1 X114.111 Y93.313 E18.92500
G1 X113.848 Y93.840 E18.97421
G1 X113.393 Y94.608 E19.04879
G1 X112.875 Y95.401 E19.12791
G1 X112.340 Y96.147 E19.20454
G1 X111.832 Y96.797 E19.27348
G1 X111.246 Y97.489 E19.34926
G1 X110.594 Y98.194 E19.42948
G1 X109.944 Y98.840 E19.50598
G1 X109.288 Y99.438 E19.58015
G1 X108.663 Y99.966 E19.64845
G1 X108.024 Y100.464 E19.71611
G1 X107.380 Y100.929 E19.78250
G1 X106.680 Y101.395 E19.85276
G1 X106.021 Y101.799 E19.91730
G1 X105.267 Y102.223 E19.98960
G1 X104.558 Y102.586 E20.05611
G1 X103.760 Y102.957 E20.12959
G1 X103.041 Y103.259 E20.19480
G1 X102.237 Y103.561 E20.26650
G1 X101.422 Y103.829 E20.33815
G1 X100.670 Y104.045 E20.40352
G1 X99.903 Y104.237 E20.46959
G1 X99.166 Y104.394 E20.53252
G1 X98.421 Y104.525 E20.59566
G1 X97.525 Y104.647 E20.67124
G1 X96.647 Y104.731 E20.74493
G1 X95.697 Y104.780 E20.82440
G1 X94.900 Y104.789 E20.89092
G1 X93.992 Y104.763 E20.96682
G1 X69.998 Y103.290 E22.97488
G1 X69.497 Y103.225 E23.01707
G1 X68.856 Y103.096 E23.07170
G1 X68.259 Y102.929 E23.12347
G1 X67.779 Y102.758 E23.16597
G1 X67.223 Y102.519 E23.21655
G1 X66.599 Y102.190 E23.27548
G1 X66.213 Y101.950 E23.31340
G1 X65.641 Y101.539 E23.37230
G1 X65.239 Y101.200 E23.41624
G1 X64.911 Y100.889 E23.45395
G1 X64.326 Y100.239 E23.52702
G1 X63.800 Y99.514 E23.60183
G1 X63.342 Y98.708 E23.67924
G1 X63.141 Y98.274 E23.71922
G1 X62.947 Y97.775 E23.76390
G1 X62.816 Y97.377 E23.79890
G1 X62.677 Y96.855 E23.84405
G1 X62.565 Y96.290 E23.89220
G1 X62.494 Y95.756 E23.93719
G1 X62.449 Y94.874 E24.01093
G1 X62.449 Y85.114 E24.82620
G1 X62.476 Y84.445 E24.88213
G1 X62.566 Y83.707 E24.94418
G1 X62.666 Y83.195 E24.98782
G1 X62.781 Y82.743 E25.02677
G1 X62.947 Y82.225 E25.07223
G1 X63.226 Y81.536 E25.13426
G1 X63.610 Y80.795 E25.20398
G1 X63.980 Y80.218 E25.26123
G1 X64.459 Y79.600 E25.32654
G1 X64.904 Y79.118 E25.38136
G1 X65.464 Y78.606 E25.44471
G1 E23.44471 F2400.00000
G92 E0
G1 X97.525 Y88.580 F6000.000
G1 E2.00000 F2400.00000
G1 X97.608 Y88.439 E2.00906 F750.000
G1 X97.772 Y88.301 E2.02099
G1 X98.048 Y88.230 E2.03680 F750.000
G1 X98.294 Y88.251 E2.05054
G1 X98.502 Y88.321 E2.06273
G1 X98.703 Y88.453 E2.07610
G1 X98.845 Y88.628 E2.08863
G1 X98.942 Y88.844 E2.10181
G1 X99.128 Y89.492 E2.13927
G1 X99.433 Y90.274 E2.18598
G1 X99.666 Y90.265 E2.19893
G1 X100.092 Y89.021 E2.27207
G1 X100.230 Y88.726 E2.29013
G1 X100.386 Y88.498 E2.30552
G1 X100.554 Y88.338 E2.31842
G1 X100.745 Y88.245 E2.33023
G1 X100.952 Y88.234 E2.34175
G1 X101.155 Y88.306 E2.35371
G1 X101.336 Y88.447 E2.36648
G1 X101.477 Y88.636 E2.37959
G1 X101.566 Y88.863 E2.39314
G1 X101.583 Y89.079 E2.40516
G1 X101.512 Y89.372 E2.42193
G1 X101.225 Y90.027 E2.46166
G1 X101.012 Y90.673 E2.49952
G1 X100.060 Y93.333 E2.65660
G1 X99.678 Y94.317 E2.71526
G1 X99.406 Y94.916 E2.75182
G1 X99.287 Y95.116 E2.76478
G1 X99.108 Y95.346 E2.78101
G1 X98.821 Y95.578 E2.80151
G1 X98.545 Y95.714 E2.81862
G1 X98.320 Y95.792 E2.83184
G1 X98.020 Y95.860 E2.84895
G1 X97.767 Y95.871 E2.86303
G1 X97.546 Y95.826 E2.87555
G1 X97.388 Y95.747 E2.88537
G1 X97.190 Y95.542 E2.90122
G1 X97.084 Y95.318 E2.91502
G1 X97.043 Y95.152 E2.92452
G1 X97.034 Y94.994 E2.93332
G1 X97.077 Y94.785 E2.94521
G1 X97.195 Y94.612 E2.95681
G1 X97.373 Y94.497 E2.96861
G1 X97.853 Y94.359 E2.99639
G1 X98.006 Y94.291 E3.00569
G1 X98.203 Y94.123 E3.02009
G1 X98.337 Y93.900 E3.03454
G1 X98.555 Y93.330 E3.06847
G1 X98.741 Y92.942 E3.09239
G1 X98.798 Y92.726 E3.10485
G1 X98.758 Y92.519 E3.11657
G1 X98.485 Y91.896 E3.15439
G1 X97.891 Y90.291 E3.24952
G1 X97.591 Y89.563 E3.29331
G1 X97.518 Y89.326 E3.30704
G1 X97.465 Y88.961 E3.32755
G1 X97.473 Y88.783 E3.33750
G1 X97.506 Y88.652 E3.34499
G1 X97.432 Y88.446 F6000.000
G1 X96.864 Y88.803 F6000.000
G1 X96.895 Y88.932 E3.35236 F750.000
G1 X96.815 Y89.248 E3.37048
G1 X96.126 Y90.414 E3.44574
G1 X96.056 Y90.580 E3.45577
G1 X96.034 Y90.700 E3.46257
G1 X96.044 Y90.808 E3.46861
G1 X96.087 Y90.925 E3.47552
G1 X96.769 Y92.060 E3.54916
G1 X96.908 Y92.368 E3.56792
G1 X96.947 Y92.630 E3.58264
G1 X96.916 Y92.875 E3.59640
G1 X96.809 Y93.090 E3.60976
G1 X96.591 Y93.267 E3.62535
G1 X96.361 Y93.341 E3.63877
G1 X96.120 Y93.347 E3.65216
G1 X95.902 Y93.280 E3.66487
G1 X95.724 Y93.147 E3.67720
G1 X95.531 Y92.880 E3.69551
G1 X95.108 Y92.118 E3.74397
G1 X94.972 Y92.419 E3.76236
G1 X94.778 Y92.750 E3.78366
G1 X94.569 Y93.045 E3.80377
G1 X94.397 Y93.216 E3.81723
G1 X94.136 Y93.335 E3.83318
G1 X93.844 Y93.307 E3.84951
G1 X93.579 Y93.161 E3.86635
G1 X93.423 Y92.977 E3.87975
G1 X93.354 Y92.779 E3.89140
G1 X93.349 Y92.621 E3.90018
G1 X93.392 Y92.406 E3.91240
G1 X93.460 Y92.235 E3.92264
G1 X93.989 Y91.305 E3.98211
G1 X94.314 Y90.847 E4.01333
G1 X94.351 Y90.740 E4.01963
G1 X94.083 Y90.336 E4.04659
G1 X93.619 Y89.519 E4.09884
G1 X93.522 Y89.324 E4.11096
G1 X93.436 Y89.069 E4.12593
G1 X93.420 Y88.775 E4.14229
G1 X93.528 Y88.523 E4.15757
G1 X93.692 Y88.369 E4.17005
G1 X93.845 Y88.286 E4.17972
G1 X94.100 Y88.228 E4.19426 F750.000
G1 X94.283 Y88.246 E4.20452
G1 X94.423 Y88.297 E4.21278
G1 X94.554 Y88.379 E4.22136
G1 X94.724 Y88.545 E4.23457
G1 X94.954 Y88.878 E4.25710
G1 X95.188 Y89.333 E4.28551
G1 X95.331 Y89.009 E4.30520
G1 X95.483 Y88.735 E4.32263
G1 X95.672 Y88.507 E4.33908
G1 X95.865 Y88.346 E4.35308
G1 X96.130 Y88.232 E4.36909
G1 X96.412 Y88.255 E4.38482
G1 X96.662 Y88.415 E4.40132
G1 X96.826 Y88.641 E4.41685
G1 X96.847 Y88.730 E4.42196
G1 X96.991 Y88.841 F6000.000
G1 X98.599 Y87.558 F6000.000
G1 X99.537 Y86.266 F6000.000
G1 X99.557 Y87.251 F6000.000
G1 X99.562 Y87.546 F6000.000
G1 X99.567 Y87.749 F6000.000
G1 X99.311 Y88.005 F6000.000
G1 X99.555 Y88.880 F6000.000
G1 X99.313 Y88.339 E4.47147 F750.000
G1 X99.072 Y88.043 E4.50337
G1 X98.741 Y87.827 E4.53638
G1 X98.405 Y87.714 E4.56599
G1 X98.002 Y87.679 E4.59983
G1 X97.516 Y87.804 E4.64170
G1 X97.172 Y88.094 E4.67931
G1 X96.591 Y87.723 E4.73684
G1 X96.039 Y87.677 E4.78314
G1 X95.578 Y87.876 E4.82512
G1 X95.168 Y88.216 E4.86955
G1 X94.892 Y87.948 E4.90171
G1 X94.664 Y87.805 E4.92420
G1 X94.405 Y87.711 E4.94720
G1 X94.066 Y87.677 E4.97571
G1 X93.651 Y87.771 E5.01120
G1 X93.370 Y87.923 E5.03795
G1 X93.072 Y88.203 E5.07205
G1 X92.868 Y88.677 E5.11515
G1 X92.896 Y89.173 E5.15663
G1 X93.017 Y89.533 E5.18837
G1 X93.137 Y89.775 E5.21094
G1 X93.709 Y90.758 E5.30595
G1 X93.529 Y91.012 E5.33197
G1 X93.312 Y91.393 E5.36855
G1 X92.966 Y91.024 E5.41082
G1 X92.714 Y90.836 E5.43711
G1 X92.430 Y90.692 E5.46369
G1 X92.105 Y90.596 E5.49197
G1 X91.666 Y90.568 E5.52874
G1 X91.392 Y90.610 E5.55190
G1 X91.416 Y89.980 E5.60461
G1 X91.394 Y89.416 E5.65174
G1 X91.289 Y88.748 E5.70820
G1 X91.196 Y88.418 E5.73690
G1 X91.025 Y87.982 E5.77600
G1 X90.726 Y87.474 E5.82523
G1 X90.386 Y87.077 E5.86889
G1 X89.951 Y86.729 E5.91543
G1 X89.463 Y86.491 E5.96080
G1 X88.901 Y86.344 E6.00932
G1 X88.381 Y86.276 E6.05310
G1 X86.704 Y86.238 E6.19327
G1 X86.292 Y86.281 E6.22781
G1 X85.827 Y86.461 E6.26948
G1 X85.436 Y86.843 E6.31514
G1 X85.241 Y87.544 E6.37590
G1 X84.885 Y86.959 E6.43314
G1 X84.617 Y86.670 E6.46604
G1 X84.381 Y86.488 E6.49090
G1 X84.038 Y86.303 E6.52343
G1 X83.755 Y86.203 E6.54851
G1 X83.362 Y86.118 E6.58211
G1 X83.019 Y86.081 E6.61092
G1 X82.540 Y86.080 E6.65091
G1 X82.167 Y86.120 E6.68231
G1 X81.762 Y86.212 E6.71700
G1 X81.385 Y86.359 E6.75075
G1 X81.130 Y86.501 E6.77516
G1 X80.792 Y86.758 E6.81063
G1 X80.437 Y86.439 E6.85044
G1 X80.116 Y86.296 E6.87982
G1 X79.841 Y86.250 E6.90311
G1 X76.504 Y86.261 E7.18182
G1 X75.860 Y86.215 E7.23577
G1 X75.498 Y86.257 E7.26619
G1 X75.113 Y86.445 E7.30200
G1 X74.711 Y86.871 E7.35094
G1 X74.247 Y86.516 E7.39978
G1 X73.887 Y86.320 E7.43397
G1 X73.477 Y86.178 E7.47022
G1 X73.019 Y86.097 E7.50906
G1 X72.609 Y86.077 E7.54339
G1 X72.284 Y86.089 E7.57052
G1 X71.930 Y86.136 E7.60037
G1 X71.557 Y86.228 E7.63247
G1 X71.269 Y86.333 E7.65806
G1 X70.992 Y86.467 E7.68379
G1 X70.631 Y86.698 E7.71958
G1 X70.385 Y86.903 E7.74635
G1 X69.902 Y87.417 E7.80528
G1 X69.903 Y85.061 E8.00209
G1 X69.942 Y84.802 E8.02402
G1 X70.045 Y84.553 E8.04649
G1 X70.194 Y84.365 E8.06654
G1 X70.383 Y84.231 E8.08586
G1 X70.585 Y84.154 E8.10391
G1 X70.839 Y84.114 E8.12540
G1 X94.197 Y82.686 E10.08014
G1 X95.057 Y82.661 E10.15201
G1 X96.087 Y82.698 E10.23815
G1 X96.858 Y82.775 E10.30287 F750.000
G1 X97.645 Y82.900 E10.36941
G1 X98.696 Y83.138 E10.45939
G1 X99.467 Y83.366 E10.52658
G1 X100.483 Y83.743 E10.61713
G1 X101.306 Y84.116 E10.69257
G1 X102.184 Y84.587 E10.77581
G1 X102.876 Y85.018 E10.84390
G1 X103.758 Y85.652 E10.93464
G1 X104.523 Y86.293 E11.01802
G1 X105.171 Y86.914 E11.09298
G1 X105.766 Y87.561 E11.16644
G1 X105.618 Y87.813 E11.19082
G1 X105.121 Y87.690 E11.23358
G1 X102.886 Y87.686 E11.42021
G1 X102.601 Y87.706 E11.44410
G1 X102.265 Y87.779 E11.47283
G1 X101.923 Y87.947 E11.50465
G1 X101.777 Y88.100 E11.52238
G1 X101.421 Y87.823 E11.56003
G1 X101.032 Y87.683 E11.59457
G1 X100.605 Y87.707 E11.63027
G1 X100.240 Y87.885 E11.66420
G1 X99.969 Y88.143 E11.69545
G1 X99.755 Y88.455 E11.72706
G1 X99.587 Y88.813 E11.76007
G1 E9.76007 F2400.00000
G92 E0
G1 X101.887 Y90.408 F6000.000
G1 X101.948 Y90.640 F6000.000
G1 X101.832 Y90.865 F6000.000
G1 X101.790 Y90.945 F6000.000
G1 X101.720 Y90.922 F6000.000
G1 X101.356 Y91.329 F6000.000
G1 E2.00000 F2400.00000
G1 X101.735 Y90.222 E2.09773 F750.000
G1 X101.854 Y89.950 E2.12250
G1 X102.199 Y90.139 E2.15535
G1 X102.626 Y90.265 E2.19255 F750.000
G1 X101.811 Y91.389 E2.30856
G1 X101.564 Y91.794 E2.34816
G1 X101.244 Y91.641 E2.37778
G1 X101.331 Y91.400 E2.39922
G1 E0.39922 F2400.00000
G92 E0
G1 X101.946 Y90.239 F6000.000
G1 X106.176 Y91.607 F6000.000
G1 X107.152 Y90.527 F6000.000
G1 E2.00000 F2400.00000
G1 X106.649 Y91.307 E2.07751 F750.000
G1 X106.174 Y91.950 E2.14434
G1 X105.996 Y91.701 E2.16996
G1 X105.738 Y91.506 E2.19699
G1 X105.069 Y91.253 E2.25674
G1 X105.755 Y90.288 E2.35569
G1 X106.027 Y89.872 E2.39717
G1 X106.179 Y89.531 E2.42838
G1 X106.256 Y89.121 E2.46322
G1 X106.227 Y88.601 E2.50671
G1 X106.506 Y88.504 E2.53142
G1 X106.868 Y89.016 E2.58385
G1 X107.324 Y89.767 E2.65722 F750.000
G1 X107.362 Y89.870 E2.66636
G1 X107.380 Y89.986 E2.67620
G1 X107.370 Y90.092 E2.68511
G1 X107.321 Y90.239 E2.69806
G1 X107.190 Y90.462 E2.71963
G1 E0.71963 F2400.00000
G92 E0
G1 X106.176 Y91.607 F6000.000
G1 X97.665 Y92.315 F6000.000
G1 X93.019 Y92.303 F6000.000
G1 E2.00000 F2400.00000
G1 X93.008 Y92.531 E2.01265 F750.000
G1 X92.958 Y92.751 E2.02522
G1 X92.822 Y93.040 E2.04298
G1 X92.682 Y93.219 E2.05563
G1 X92.513 Y93.371 E2.06827
G1 X92.233 Y93.527 E2.08607
G1 X92.015 Y93.591 E2.09872
G1 X91.796 Y93.615 E2.11097
G1 X91.575 Y93.600 E2.12326
G1 X91.361 Y93.547 E2.13550
G1 X91.154 Y93.455 E2.14812
G1 X90.909 Y93.274 E2.16506
G1 X90.750 Y93.092 E2.17851
