; generated by Slic3r 1.2.9 on 2018-02-06 at 14:33:30

; external perimeters extrusion width = 0.40mm
; perimeters extrusion width = 0.40mm
; infill extrusion width = 0.40mm
; solid infill extrusion width = 0.40mm
; top infill extrusion width = 0.40mm

M107
M83
T0
M116
G21 ; set units to millimeters
G90 ; use absolute coordinates
M83 ; use relative distances for extrusion
G1 E-5.00000 F1500.00000
G1 Z0.400 F15000.000
G1 X0.120 Y7.703 F15000.000
G1 Z0.300 F15000.000
G1 E5.00000 F1500.00000
G1 X-0.320 Y7.699 E0.03391 F2400.000
G1 X-12.380 Y6.957 E0.93122
G1 X-12.730 Y6.918 E0.02715
G1 X-12.908 Y6.890 E0.01383
G1 X-13.747 Y6.650 E0.06725
G1 X-13.957 Y6.561 E0.01762
G1 X-14.845 Y6.026 E0.07990
G1 X-15.018 Y5.885 E0.01722
G1 X-15.654 Y5.214 E0.07122
G1 X-15.753 Y5.078 E0.01300
G1 X-16.189 Y4.294 E0.06906
G1 X-16.275 Y4.079 E0.01788
G1 X-16.512 Y3.162 E0.07302
G1 X-16.569 Y2.474 E0.05316
G1 X-16.567 Y-2.540 E0.38643
G1 X-16.505 Y-3.212 E0.05198
G1 X-16.460 Y-3.448 E0.01857
G1 X-16.195 Y-4.283 E0.06748
G1 X-16.118 Y-4.453 E0.01440
G1 X-15.649 Y-5.216 E0.06902
G1 X-15.518 Y-5.380 E0.01618
G1 X-14.771 Y-6.082 E0.07898
G1 X-14.588 Y-6.211 E0.01727
G1 X-13.790 Y-6.636 E0.06969
G1 X-13.628 Y-6.697 E0.01329
G1 X-12.908 Y-6.890 E0.05746
G1 X-12.383 Y-6.957 E0.04081
G1 X-0.650 Y-7.687 E0.90598
G1 X0.131 Y-7.705 E0.06019
G1 X0.659 Y-7.688 E0.04072 F2400.000
G1 X1.324 Y-7.630 E0.05140
G1 X2.088 Y-7.513 E0.05957
G1 X2.802 Y-7.354 E0.05640
G1 X3.560 Y-7.131 E0.06087
G1 X4.224 Y-6.887 E0.05453
G1 X5.061 Y-6.506 E0.07083
G1 X5.745 Y-6.130 E0.06020
G1 X6.198 Y-5.845 E0.04125
G1 X6.788 Y-5.427 E0.05571
G1 X7.385 Y-4.938 E0.05947
G1 X8.078 Y-4.277 E0.07381
G1 X8.540 Y-3.766 E0.05308
G1 X8.860 Y-3.371 E0.03919
G1 X9.273 Y-2.801 E0.05424
G1 X9.669 Y-2.169 E0.05747
G1 X10.003 Y-1.462 E0.06026
G1 X10.056 Y-1.307 E0.01264
G1 X10.242 Y-0.440 E0.06835
G1 X10.254 Y-0.304 E0.01052
G1 X10.229 Y0.548 E0.06565
G1 X10.210 Y0.682 E0.01045
G1 X10.011 Y1.445 E0.06078
G1 X9.636 Y2.225 E0.06669
G1 X9.069 Y3.091 E0.07975
G1 X8.429 Y3.893 E0.07906
G1 X7.725 Y4.626 E0.07831
G1 X6.932 Y5.313 E0.08089
G1 X6.095 Y5.911 E0.07933
G1 X5.494 Y6.274 E0.05407
G1 X4.825 Y6.622 E0.05807
G1 X3.919 Y7.005 E0.07585
G1 X3.229 Y7.236 E0.05608
G1 X2.753 Y7.367 E0.03800
G1 X2.036 Y7.523 E0.05657
G1 X1.180 Y7.646 E0.06666
G1 X0.678 Y7.687 E0.03878
G1 X0.180 Y7.702 E0.03839
G1 E-5.00000 F1500.00000
G1 Z0.700 F15000.000
G1 X-10.380 Y2.450 F15000.000
G1 Z0.300 F15000.000
G1 E5.00000 F1500.00000
G1 X-11.948 Y2.354 E0.12109 F2400.000
G1 X-11.946 Y-2.354 E0.36277
G1 X-0.378 Y-3.074 E0.89321
G1 X0.010 Y-3.085 E0.02997
G1 X0.476 Y-3.070 E0.03589
G1 X0.842 Y-3.034 E0.02837 F2400.000
G1 X1.308 Y-2.958 E0.03639
G1 X1.718 Y-2.862 E0.03245
G1 X2.175 Y-2.722 E0.03680
G1 X2.909 Y-2.416 E0.06134
G1 X3.314 Y-2.199 E0.03539
G1 X3.710 Y-1.950 E0.03604
G1 X4.045 Y-1.707 E0.03190
G1 X4.397 Y-1.413 E0.03539
G1 X4.702 Y-1.121 E0.03248
G1 X4.970 Y-0.831 E0.03046
G1 X5.251 Y-0.485 E0.03431
G1 X5.577 Y-0.003 E0.04484
G1 X5.385 Y0.300 E0.02767
G1 X5.017 Y0.776 E0.04637
G1 X4.613 Y1.210 E0.04570
G1 X4.152 Y1.621 E0.04756
G1 X3.669 Y1.978 E0.04631
G1 X3.140 Y2.297 E0.04762
G1 X2.779 Y2.478 E0.03109
G1 X2.374 Y2.649 E0.03387
G1 X1.970 Y2.789 E0.03296
G1 X1.557 Y2.903 E0.03307
G1 X0.774 Y3.042 E0.06126
G1 X0.335 Y3.078 E0.03397
G1 X-0.074 Y3.085 E0.03147
G1 X-10.320 Y2.454 E0.79113
G1 X-10.359 Y3.088 F15000.000
G1 X-12.237 Y2.961 E0.14507 F2400.000
G1 X-12.362 Y2.908 E0.01047
G1 X-12.462 Y2.827 E0.00987
G1 X-12.509 Y2.762 E0.00619
G1 X-12.562 Y2.630 E0.01099
G1 X-12.584 Y2.454 E0.01364
G1 X-12.582 Y-2.506 E0.38226
G1 X-12.551 Y-2.669 E0.01278
G1 X-12.509 Y-2.761 E0.00778
G1 X-12.436 Y-2.852 E0.00899
G1 X-12.330 Y-2.927 E0.01005
G1 X-12.118 Y-2.980 E0.01679
G1 X-0.408 Y-3.709 E0.90424
G1 X0.011 Y-3.721 E0.03230
G1 X0.517 Y-3.705 E0.03901
G1 X0.925 Y-3.665 E0.03154 F2400.000
G1 X1.432 Y-3.582 E0.03962
G1 X1.884 Y-3.476 E0.03576
G1 X2.381 Y-3.324 E0.04009
G1 X2.795 Y-3.166 E0.03411
G1 X3.191 Y-2.986 E0.03353
G1 X3.634 Y-2.749 E0.03870
G1 X4.066 Y-2.477 E0.03940
G1 X4.436 Y-2.209 E0.03519
G1 X4.821 Y-1.887 E0.03869
G1 X5.156 Y-1.567 E0.03567
G1 X5.451 Y-1.247 E0.03356
G1 X5.757 Y-0.869 E0.03745
G1 X6.015 Y-0.506 E0.03432
G1 X6.249 Y-0.123 E0.03456
G1 X6.280 Y0.007 E0.01036
G1 X6.249 Y0.123 E0.00927
G1 X5.906 Y0.665 E0.04943
G1 X5.502 Y1.188 E0.05092
G1 X5.058 Y1.664 E0.05019
G1 X4.554 Y2.115 E0.05211
G1 X4.022 Y2.507 E0.05088
G1 X3.447 Y2.854 E0.05178
G1 X3.046 Y3.055 E0.03458
G1 X2.603 Y3.243 E0.03710
G1 X2.159 Y3.397 E0.03618
G1 X1.706 Y3.522 E0.03625
G1 X1.240 Y3.618 E0.03662
G1 X0.845 Y3.674 E0.03078
G1 X0.366 Y3.713 E0.03707
G1 X-0.088 Y3.721 E0.03497
G1 X-10.299 Y3.092 E0.78840
G1 X-10.536 Y2.729 F15000.000
G1 X-11.252 Y2.002 F15000.000
G1 X-11.563 Y1.691 E0.03453 F2400.000
G1 X-11.562 Y0.775 E0.07185
G1 X-10.276 Y2.062 E0.14280
G1 X-9.300 Y2.122 E0.07674
G1 X-11.562 Y-0.140 E0.25108
G1 X-11.561 Y-1.055 E0.07185
G1 X-8.324 Y2.182 E0.35935
G1 X-7.349 Y2.242 E0.07674
G1 X-11.556 Y-1.966 E0.46710
G1 X-10.727 Y-2.052 E0.06547
G1 X-6.373 Y2.302 E0.48332
G1 X-5.397 Y2.362 E0.07674
G1 X-9.865 Y-2.105 E0.49594
G1 X-9.003 Y-2.159 E0.06779
G1 X-4.422 Y2.422 E0.50856
G1 X-3.446 Y2.482 E0.07674
G1 X-8.141 Y-2.213 E0.52119
G1 X-7.279 Y-2.266 E0.06779
G1 X-2.470 Y2.542 E0.53381
G1 X-1.495 Y2.602 E0.07674
G1 X-6.417 Y-2.320 E0.54644
G1 X-5.555 Y-2.373 E0.06779
G1 X-0.519 Y2.662 E0.55906
G1 X0.428 Y2.693 E0.07434
G1 X-4.693 Y-2.427 E0.56845
G1 X-3.831 Y-2.481 E0.06779
G1 X1.240 Y2.590 E0.56292
G1 X1.982 Y2.416 E0.05982
G1 X-2.969 Y-2.534 E0.54960
G1 X-2.107 Y-2.588 E0.06779
G1 X2.643 Y2.162 E0.52737
G1 X3.241 Y1.844 E0.05314
G1 X-1.245 Y-2.642 E0.49801
G1 X-0.380 Y-2.692 E0.06804
G1 X3.789 Y1.477 E0.46280
G1 X4.278 Y1.050 E0.05094
G1 X0.568 Y-2.660 E0.41181
G1 X1.738 Y-2.405 E0.09402
G1 X4.735 Y0.592 E0.33271
G1 X4.744 Y-0.315 F15000.000
G1 X3.819 Y-1.240 E0.10267 F2400.000
G1 E-5.00000 F1500.00000
G1 Z0.700 F15000.000
G1 X5.808 Y-0.866 F15000.000
G1 Z0.500 F15000.000
G1 E5.00000 F1500.00000
G1 X6.153 Y-0.390 E0.01697 F2400.000
G1 X6.389 Y-0.004 E0.01307
G1 X6.014 Y0.593 E0.02034
G1 X5.591 Y1.136 E0.01988
G1 X5.121 Y1.634 E0.01975
G1 X4.659 Y2.044 E0.01783
G1 X4.162 Y2.414 E0.01787
G1 X3.569 Y2.779 E0.02011
G1 X3.122 Y3.006 E0.01447
G1 X2.711 Y3.182 E0.01291
G1 X2.216 Y3.357 E0.01514
G1 X1.768 Y3.482 E0.01342
G1 X1.303 Y3.580 E0.01372
G1 X0.821 Y3.650 E0.01406
G1 X0.399 Y3.685 E0.01223
G1 X-0.036 Y3.695 E0.01254
G1 X-0.485 Y3.678 E0.01298
G1 X-12.226 Y2.904 E0.33962
G1 X-12.366 Y2.866 E0.00417
G1 X-12.451 Y2.783 E0.00343
G1 X-12.494 Y2.617 E0.00493
G1 X-12.495 Y0.907 E0.04937
G1 X-9.805 Y0.907 E0.07764
G1 X-9.805 Y-0.907 E0.05233
G1 X-12.494 Y-0.907 E0.07760
G1 X-12.488 Y-2.669 E0.05085
G1 X-12.436 Y-2.805 E0.00421
G1 X-12.383 Y-2.856 E0.00211
G1 X-12.215 Y-2.905 E0.00506
G1 X-0.494 Y-3.678 E0.33902
G1 X0.106 Y-3.694 E0.01733
G1 X0.606 Y-3.671 E0.01444
G1 X1.097 Y-3.614 E0.01429 F2400.000
G1 X1.499 Y-3.543 E0.01176
G1 X2.022 Y-3.415 E0.01555
G1 X2.460 Y-3.276 E0.01325
G1 X2.885 Y-3.111 E0.01316
G1 X3.290 Y-2.925 E0.01286
G1 X3.733 Y-2.685 E0.01455
G1 X4.105 Y-2.453 E0.01265
G1 X4.509 Y-2.163 E0.01437
G1 X4.890 Y-1.848 E0.01425
G1 X5.247 Y-1.509 E0.01422
G1 X5.770 Y-0.913 E0.02288
G1 X6.050 Y-1.136 F15000.000
G1 X6.451 Y-0.586 E0.01964 F2400.000
G1 X6.690 Y-0.196 E0.01321
G1 X6.740 Y-0.011 E0.00552
G1 X6.704 Y0.166 E0.00523
G1 X6.307 Y0.798 E0.02153
G1 X5.862 Y1.369 E0.02089
G1 X5.370 Y1.890 E0.02070
G1 X4.884 Y2.321 E0.01873
G1 X4.363 Y2.710 E0.01877
G1 X3.743 Y3.091 E0.02099
G1 X3.273 Y3.330 E0.01523
G1 X2.841 Y3.515 E0.01358
G1 X2.324 Y3.698 E0.01583
G1 X1.853 Y3.829 E0.01409
G1 X1.366 Y3.932 E0.01438
G1 X0.861 Y4.005 E0.01471
G1 X0.417 Y4.041 E0.01285
G1 X-0.038 Y4.052 E0.01315
G1 X-0.504 Y4.035 E0.01344
G1 X-12.275 Y3.258 E0.34050
G1 X-12.447 Y3.222 E0.00507
G1 X-12.558 Y3.171 E0.00353
G1 X-12.691 Y3.061 E0.00497
G1 X-12.762 Y2.962 E0.00352
G1 X-12.814 Y2.845 E0.00369
G1 X-12.851 Y2.651 E0.00572
G1 X-12.852 Y0.550 E0.06063
G1 X-10.162 Y0.549 E0.07765
G1 X-10.162 Y-0.549 E0.03172
G1 X-12.852 Y-0.550 E0.07763
G1 X-12.845 Y-2.708 E0.06229
G1 X-12.816 Y-2.839 E0.00386
G1 X-12.738 Y-3.001 E0.00521
G1 X-12.659 Y-3.094 E0.00351
G1 X-12.564 Y-3.167 E0.00346
G1 X-12.400 Y-3.236 E0.00515
G1 X-12.256 Y-3.260 E0.00421
G1 X-0.511 Y-4.034 E0.33972
G1 X0.109 Y-4.051 E0.01791
G1 X0.634 Y-4.027 E0.01517
G1 X1.149 Y-3.968 E0.01496 F2400.000
G1 X1.572 Y-3.892 E0.01241
G1 X2.118 Y-3.759 E0.01622
G1 X2.578 Y-3.613 E0.01392
G1 X3.024 Y-3.440 E0.01380
G1 X3.449 Y-3.245 E0.01351
G1 X3.913 Y-2.994 E0.01521
G1 X4.304 Y-2.750 E0.01331
G1 X4.727 Y-2.445 E0.01506
G1 X5.126 Y-2.115 E0.01494
G1 X5.502 Y-1.760 E0.01494
G1 X6.013 Y-1.183 E0.02223
G1 X5.899 Y-0.765 F15000.000
G1 X6.040 Y-0.230 F15000.000
G1 X3.047 Y2.763 E0.12456 F2400.000
G1 X2.176 Y3.119 F15000.000
G1 X5.832 Y-0.537 E0.15214 F2400.000
G1 X5.611 Y-0.830 E0.01081
G1 X1.465 Y3.316 E0.17252
G1 X0.840 Y3.426 E0.01866
G1 X5.372 Y-1.106 E0.18859
G1 X5.115 Y-1.364 E0.01071
G1 X0.285 Y3.466 E0.20097
G1 X-0.246 Y3.482 E0.01562
G1 X4.857 Y-1.621 E0.21235
G1 X4.589 Y-1.867 E0.01072
G1 X-0.737 Y3.458 E0.22161
G1 X-1.220 Y3.426 E0.01424
G1 X4.300 Y-2.094 E0.22971
G1 X4.000 Y-2.308 E0.01086
G1 X-1.703 Y3.395 E0.23729
G1 X-2.186 Y3.363 E0.01424
G1 X3.683 Y-2.506 E0.24420
G1 X3.350 Y-2.687 E0.01117
G1 X-2.669 Y3.331 E0.25043
G1 X-3.152 Y3.299 E0.01424
G1 X3.003 Y-2.856 E0.25611
G1 X2.640 Y-3.007 E0.01158
G1 X-3.635 Y3.267 E0.26109
G1 X-4.118 Y3.235 E0.01424
G1 X2.260 Y-3.142 E0.26537
G1 X1.860 Y-3.257 E0.01224
G1 X-4.601 Y3.203 E0.26883
G1 X-5.083 Y3.172 E0.01424
G1 X1.442 Y-3.354 E0.27155
G1 X0.998 Y-3.425 E0.01323
G1 X-5.566 Y3.140 E0.27316
G1 X-6.049 Y3.108 E0.01424
G1 X0.528 Y-3.470 E0.27371
G1 X0.026 Y-3.482 E0.01479
G1 X-6.532 Y3.076 E0.27289
G1 X-7.015 Y3.044 E0.01424
G1 X-0.508 Y-3.463 E0.27079
G1 X-1.059 Y-3.427 E0.01625
G1 X-7.498 Y3.012 E0.26795
G1 X-7.981 Y2.980 E0.01424
G1 X-1.610 Y-3.391 E0.26511
G1 X-2.161 Y-3.354 E0.01625
G1 X-8.464 Y2.948 E0.26228
G1 X-8.947 Y2.917 E0.01424
G1 X-2.712 Y-3.318 E0.25944
G1 X-3.264 Y-3.282 E0.01625
G1 X-9.430 Y2.885 E0.25660
G1 X-9.913 Y2.853 E0.01424
G1 X-3.815 Y-3.245 E0.25376
G1 X-4.366 Y-3.209 E0.01625
G1 X-10.396 Y2.821 E0.25092
G1 X-10.879 Y2.789 E0.01424
G1 X-4.917 Y-3.173 E0.24808
G1 X-5.468 Y-3.136 E0.01625
G1 X-11.362 Y2.757 E0.24525
G1 X-11.845 Y2.725 E0.01424
G1 X-10.234 Y1.114 E0.06704
G1 X-10.749 Y1.114 E0.01515
G1 X-12.285 Y2.651 E0.06395
G1 X-12.286 Y2.137 E0.01512
G1 X-11.263 Y1.114 E0.04256
G1 X-11.778 Y1.115 E0.01515
G1 X-12.287 Y1.623 E0.02115
G1 E-5.00000 F1500.00000
G1 Z0.900 F15000.000
G1 X-12.123 Y-1.115 F15000.000
G1 Z0.500 F15000.000
G1 E5.00000 F1500.00000
G1 X-10.429 Y-2.809 E0.07052 F2400.000
G1 X-10.980 Y-2.773 E0.01625
G1 X-12.284 Y-1.469 E0.05427
G1 X-12.282 Y-1.985 E0.01520
G1 X-11.531 Y-2.737 E0.03127
G1 X-12.082 Y-2.700 E0.01625
G1 X-12.281 Y-2.502 E0.00826
G1 X-11.608 Y-1.115 F15000.000
G1 X-9.877 Y-2.846 E0.07203 F2400.000
G1 X-9.326 Y-2.882 E0.01625
G1 X-11.094 Y-1.114 E0.07355
G1 X-10.579 Y-1.114 E0.01515
G1 X-8.775 Y-2.918 E0.07506
G1 X-8.224 Y-2.955 E0.01625
G1 X-10.064 Y-1.114 E0.07658
G1 X-9.597 Y-1.066 E0.01381
G1 X-7.673 Y-2.991 E0.08009
G1 X-7.122 Y-3.027 E0.01625
G1 X-9.597 Y-0.552 E0.10302
G1 X-9.597 Y-0.037 E0.01515
G1 X-6.571 Y-3.064 E0.12596
G1 X-6.019 Y-3.100 E0.01625
G1 X-9.597 Y0.478 E0.14889
G1 X4.597 Y1.728 F15000.000
G1 X5.455 Y0.870 E0.03570 F2400.000
G1 E-5.00000 F1500.00000
G1 Z0.900 F15000.000
G1 X-12.590 Y1.065 F15000.000
G1 Z0.700 F15000.000
G1 E5.00000 F1500.00000
G1 X-9.805 Y1.065 E0.08037 F2400.000
G1 X-9.805 Y-1.065 E0.06146
G1 X-12.588 Y-1.065 E0.08033
G1 X-12.583 Y-2.764 E0.04902
G1 X-12.537 Y-2.901 E0.00418
G1 X-12.474 Y-2.962 E0.00255
G1 X-12.412 Y-2.990 E0.00195
G1 X-0.471 Y-3.825 E0.34549
G1 X0.070 Y-3.839 E0.01562
G1 X0.581 Y-3.817 E0.01478
G1 X1.016 Y-3.772 E0.01260 F2400.000
G1 X1.502 Y-3.691 E0.01423
G1 X1.982 Y-3.579 E0.01422
G1 X2.504 Y-3.420 E0.01575
G1 X2.943 Y-3.253 E0.01356
G1 X3.430 Y-3.031 E0.01546
G1 X3.835 Y-2.814 E0.01325
G1 X4.280 Y-2.536 E0.01514
G1 X4.702 Y-2.231 E0.01504
G1 X5.079 Y-1.918 E0.01414
G1 X5.431 Y-1.586 E0.01396
G1 X5.766 Y-1.226 E0.01420
G1 X6.098 Y-0.818 E0.01518
G1 X6.382 Y-0.417 E0.01418
G1 X6.636 Y-0.004 E0.01401
G1 X6.292 Y0.550 E0.01880
G1 X5.877 Y1.096 E0.01981
G1 X5.390 Y1.626 E0.02077
G1 X4.910 Y2.063 E0.01871
G1 X4.394 Y2.458 E0.01877
G1 X3.841 Y2.810 E0.01894
G1 X3.376 Y3.057 E0.01518
G1 X2.888 Y3.276 E0.01542
G1 X2.379 Y3.462 E0.01566
G1 X1.918 Y3.596 E0.01386
G1 X1.439 Y3.703 E0.01414
G1 X0.947 Y3.781 E0.01440
G1 X0.441 Y3.826 E0.01466
G1 X-0.079 Y3.838 E0.01501
G1 X-0.624 Y3.814 E0.01576
G1 X-12.301 Y3.010 E0.33781
G1 X-12.460 Y2.970 E0.00474
G1 X-12.540 Y2.895 E0.00318
G1 X-12.577 Y2.804 E0.00283
G1 X-12.590 Y1.125 E0.04845
G1 X-12.947 Y1.126 F15000.000
G1 X-12.947 Y0.708 E0.01205 F2400.000
G1 X-10.162 Y0.708 E0.08038
G1 X-10.162 Y-0.708 E0.04085
G1 X-12.947 Y-0.708 E0.08037
G1 X-12.940 Y-2.809 E0.06063
G1 X-12.893 Y-2.991 E0.00543
G1 X-12.835 Y-3.102 E0.00361
G1 X-12.755 Y-3.197 E0.00360
G1 X-12.658 Y-3.271 E0.00352
G1 X-12.519 Y-3.333 E0.00438
G1 X-12.350 Y-3.365 E0.00497
G1 X-0.488 Y-4.181 E0.34318
G1 X0.073 Y-4.196 E0.01619
G1 X0.607 Y-4.173 E0.01545
G1 X1.063 Y-4.126 E0.01323 F2400.000
G1 X1.572 Y-4.041 E0.01488
G1 X2.074 Y-3.924 E0.01489
G1 X2.619 Y-3.758 E0.01644
G1 X3.081 Y-3.583 E0.01424
G1 X3.589 Y-3.351 E0.01613
G1 X4.014 Y-3.123 E0.01392
G1 X4.479 Y-2.833 E0.01583
G1 X4.921 Y-2.513 E0.01574
G1 X5.316 Y-2.185 E0.01482
G1 X5.684 Y-1.838 E0.01461
G1 X6.036 Y-1.461 E0.01487
G1 X6.382 Y-1.034 E0.01587
G1 X6.680 Y-0.614 E0.01486
G1 X6.937 Y-0.196 E0.01417
G1 X6.973 Y-0.101 E0.00292
G1 X6.987 Y-0.011 E0.00263
G1 X6.950 Y0.168 E0.00527
G1 X6.586 Y0.752 E0.01987
G1 X6.151 Y1.325 E0.02077
G1 X5.642 Y1.880 E0.02171
G1 X5.140 Y2.337 E0.01961
G1 X4.599 Y2.751 E0.01965
G1 X4.021 Y3.119 E0.01978
G1 X3.533 Y3.378 E0.01594
G1 X3.023 Y3.607 E0.01614
G1 X2.490 Y3.801 E0.01637
G1 X2.007 Y3.942 E0.01453
G1 X1.506 Y4.054 E0.01480
G1 X0.991 Y4.135 E0.01507
G1 X0.461 Y4.183 E0.01535
G1 X-0.083 Y4.196 E0.01571
G1 X-0.645 Y4.170 E0.01623
G1 X-12.349 Y3.365 E0.33860
G1 X-12.544 Y3.326 E0.00575
G1 X-12.653 Y3.274 E0.00349
G1 X-12.786 Y3.164 E0.00497
G1 X-12.855 Y3.069 E0.00341
G1 X-12.924 Y2.899 E0.00530
G1 X-12.945 Y2.758 E0.00411
G1 X-12.947 Y1.186 E0.04537
G1 X-12.601 Y0.925 F15000.000
G1 X-12.381 Y1.897 F15000.000
G1 X-11.011 Y2.885 E0.04876 F2400.000
G1 X-9.597 Y0.999 F15000.000
G1 X-7.467 Y3.129 E0.08695 F2400.000
G1 X-4.119 Y3.360 E0.09687
G1 X-9.597 Y-0.450 E0.19260
G1 X-8.608 Y-3.061 E0.08059
G1 X-2.044 Y3.503 E0.26792
G1 X2.073 Y3.353 E0.11891
G1 X-7.326 Y-3.149 E0.32988
G1 X-3.883 Y-3.386 E0.09961
G1 X2.663 Y3.160 E0.26719
G1 X5.386 Y1.369 E0.09406
G1 X-1.690 Y-3.537 E0.24853
G1 X1.003 Y-3.550 E0.07774
G1 X5.643 Y1.090 E0.18937
G1 X-10.864 Y-1.273 F15000.000
G1 X-12.377 Y-2.359 E0.05375 F2400.000
G1 X-12.379 Y-1.782 E0.01665
G1 X-11.869 Y-1.273 E0.02079
M106 S255
G1 E-5.00000 F1500.00000
G1 Z1.100 F15000.000
G1 X4.271 Y2.731 F15000.000
G1 Z0.900 F15000.000
G1 E5.00000 F1500.00000
G1 X4.062 Y2.867 E0.00719 F2400.000
G1 X3.582 Y3.131 E0.01582
G1 X3.076 Y3.364 E0.01606
G1 X2.620 Y3.538 E0.01409
G1 X2.076 Y3.706 E0.01644
G1 X1.512 Y3.837 E0.01671
G1 X1.008 Y3.918 E0.01475
G1 X0.409 Y3.972 E0.01735
G1 X-0.045 Y3.983 E0.01310
G1 X-0.515 Y3.966 E0.01357
G1 X-12.405 Y3.113 E0.34406
G1 X-12.584 Y3.058 E0.00542
G1 X-12.639 Y2.988 E0.00257
G1 X-12.683 Y2.831 E0.00470
G1 X-12.684 Y1.107 E0.04976
G1 X-9.805 Y1.107 E0.08310
G1 X-9.805 Y-1.107 E0.06390
G1 X-12.683 Y-1.107 E0.08306
G1 X-12.677 Y-2.866 E0.05078
G1 X-12.631 Y-3.005 E0.00421
G1 X-12.572 Y-3.063 E0.00241
G1 X-12.405 Y-3.113 E0.00503
G1 X-0.523 Y-3.966 E0.34383
G1 X0.033 Y-3.982 E0.01604
G1 X0.555 Y-3.963 E0.01508
G1 X1.074 Y-3.909 E0.01507 F2400.000
G1 X1.511 Y-3.837 E0.01278
G1 X2.070 Y-3.708 E0.01656
G1 X2.545 Y-3.564 E0.01432
G1 X3.012 Y-3.390 E0.01439
G1 X3.455 Y-3.193 E0.01400
G1 X3.945 Y-2.936 E0.01594
G1 X4.405 Y-2.653 E0.01561
G1 X4.849 Y-2.335 E0.01575
