; generated by Slic3r 1.2.9 on 2019-01-07 at 12:22:16

; external perimeters extrusion width = 0.40mm
; perimeters extrusion width = 0.40mm
; infill extrusion width = 0.40mm
; solid infill extrusion width = 0.40mm
; top infill extrusion width = 0.40mm

M107
;G28 ; home all axes
;G1 Z5 F5000 ; lift nozzle
G10 P0 S200
T0
M116

G21 ; set units to millimeters
G90 ; use absolute coordinates
M82 ; use absolute distances for extrusion
G92 E0
G1 Z0.300 F15000.000
G1 E-2.00000 F2400.00000
G92 E0
G1 X67.382 Y81.006 F15000.000
G1 E2.00000 F2400.00000
G1 X67.985 Y80.561 E2.05770 F960.000
G1 X68.181 Y80.444 E2.07532
G1 X68.763 Y80.160 E2.12519
G1 X69.098 Y80.033 E2.15287
G1 X69.820 Y79.840 E2.21044
G1 X70.534 Y79.744 E2.26596
G1 X93.941 Y78.313 E4.07317
G1 X95.185 Y78.282 E4.16910
G1 X96.470 Y78.334 E4.26818 F960.000
G1 X97.318 Y78.419 E4.33385
G1 X98.353 Y78.577 E4.41457
G1 X99.687 Y78.871 E4.51980
G1 X100.734 Y79.173 E4.60381
G1 X102.031 Y79.645 E4.71016
G1 X103.138 Y80.137 E4.80356
G1 X104.276 Y80.738 E4.90272
G1 X105.413 Y81.447 E5.00600
G1 X106.551 Y82.277 E5.11449
G1 X107.537 Y83.114 E5.21424
G1 X108.220 Y83.769 E5.28711
G1 X108.997 Y84.602 E5.37494
G1 X109.778 Y85.556 E5.46994
G1 X110.461 Y86.509 E5.56033
G1 X111.105 Y87.553 E5.65482
G1 X111.438 Y88.265 E5.71544
G1 X111.545 Y88.577 E5.74085
G1 X111.726 Y89.432 E5.80820
G1 X111.751 Y89.715 E5.83009
G1 X111.727 Y90.566 E5.89568
G1 X111.685 Y90.846 E5.91750
G1 X111.487 Y91.606 E5.97805
G1 X111.387 Y91.872 E5.99991
G1 X111.114 Y92.437 E6.04828
G1 X110.725 Y93.084 E6.10647
G1 X110.294 Y93.737 E6.16680
G1 X109.766 Y94.460 E6.23578
G1 X109.255 Y95.098 E6.29876
G1 X108.741 Y95.685 E6.35889
G1 X108.132 Y96.320 E6.42665
G1 X107.543 Y96.883 E6.48949
G1 X106.696 Y97.609 E6.57546
G1 X106.120 Y98.055 E6.63162
G1 X105.467 Y98.519 E6.69329
G1 X104.669 Y99.031 E6.76638
G1 X103.832 Y99.508 E6.84066
G1 X102.986 Y99.936 E6.91369
G1 X101.866 Y100.422 E7.00781
G1 X100.707 Y100.835 E7.10260
G1 X99.532 Y101.169 E7.19678
G1 X98.332 Y101.427 E7.29136
G1 X96.996 Y101.617 E7.39536
G1 X95.847 Y101.702 E7.48415
G1 X94.880 Y101.718 E7.55870
G1 X93.915 Y101.685 E7.63311
G1 X70.534 Y100.256 E9.43831
G1 X69.740 Y100.142 E9.50012
G1 X69.137 Y99.985 E9.54816
G1 X68.489 Y99.720 E9.60206
G1 X67.874 Y99.367 E9.65678
G1 X67.684 Y99.234 E9.67459
G1 X67.109 Y98.745 E9.73279
G1 X66.672 Y98.250 E9.78364
G1 X66.461 Y97.962 E9.81120
G1 X66.124 Y97.403 E9.86151
G1 X65.835 Y96.733 E9.91771
G1 X65.641 Y96.040 E9.97317
G1 X65.541 Y95.362 E10.02598
G1 X65.519 Y94.890 E10.06241
G1 X65.522 Y85.001 E10.82449
G1 X65.564 Y84.450 E10.86713
G1 X65.622 Y84.076 E10.89628
G1 X65.760 Y83.497 E10.94217
G1 X66.027 Y82.797 E10.99986
G1 X66.136 Y82.575 E11.01895
G1 X66.526 Y81.938 E11.07651
G1 X66.991 Y81.376 E11.13268
G1 X67.328 Y81.057 E11.16844
G1 E9.16844 F2400.00000
G92 E0
G1 X81.215 Y96.279 F15000.000
G1 E2.00000 F2400.00000
G1 X70.869 Y95.647 E2.79876 F720.000
G1 X70.543 Y95.580 E2.82445
G1 X70.346 Y95.446 E2.84280
G1 X70.206 Y95.230 E2.86260
G1 X70.149 Y95.005 E2.88050
G1 X70.140 Y94.860 E2.89174
G1 X70.140 Y93.132 E3.02486
G1 X70.555 Y93.475 E3.06631
G1 X71.081 Y93.778 E3.11312
G1 X71.411 Y93.908 E3.14046
G1 X71.770 Y94.007 E3.16913
G1 X72.117 Y94.066 E3.19630
G1 X72.635 Y94.093 E3.23625
G1 X73.129 Y94.061 E3.27437
G1 X73.583 Y93.973 E3.31001
G1 X74.015 Y93.819 E3.34537
G1 X74.408 Y93.600 E3.38003
G1 X74.755 Y93.318 E3.41452
G1 X75.045 Y92.975 E3.44912
G1 X75.258 Y92.603 E3.48213
G1 X75.399 Y92.216 E3.51392
G1 X75.408 Y91.839 E3.54295
G1 X75.230 Y91.266 E3.58919
G1 X74.783 Y90.798 E3.63910
G1 X74.233 Y90.549 E3.68559
G1 X73.755 Y90.494 E3.72266
G1 X73.321 Y90.567 E3.75657
G1 X73.010 Y90.708 E3.78289
G1 X72.755 Y90.898 E3.80745
G1 X72.654 Y91.018 E3.81952
G1 X72.447 Y91.008 E3.83546
G1 X72.299 Y90.926 E3.84851
G1 X72.201 Y90.758 E3.86353
G1 X72.150 Y90.575 E3.87813
G1 X72.114 Y90.323 E3.89778
G1 X72.098 Y89.927 E3.92827
G1 X72.118 Y89.572 E3.95573
G1 X72.156 Y89.331 E3.97453
G1 X72.204 Y89.165 E3.98782
G1 X72.314 Y88.983 E4.00417
G1 X72.493 Y88.891 E4.01973
G1 X73.177 Y89.284 E4.08053
G1 X73.592 Y89.416 E4.11407
G1 X74.055 Y89.440 E4.14985
G1 X74.518 Y89.298 E4.18717
G1 X74.843 Y89.078 E4.21742
G1 X75.048 Y88.839 E4.24165
G1 X75.294 Y88.999 E4.26429
G1 X75.787 Y89.088 E4.30284
G1 X76.246 Y89.040 E4.33844
G1 X76.264 Y91.897 E4.55863
G1 X76.223 Y92.409 E4.59818
G1 X76.243 Y92.839 E4.63139
G1 X76.464 Y93.358 E4.67485
G1 X76.766 Y93.650 E4.70720
G1 X77.094 Y93.834 E4.73616
G1 X77.658 Y93.960 E4.78071
G1 X78.248 Y93.881 E4.82661
G1 X78.695 Y93.637 E4.86586
G1 X79.025 Y93.265 E4.90414
G1 X79.203 Y92.854 E4.93866
G1 X79.278 Y92.436 E4.97141
G1 X79.264 Y89.037 E5.23332
G1 X79.522 Y89.041 E5.25324
G1 X79.980 Y88.993 E5.28876
G1 X80.409 Y88.859 E5.32335
G1 X80.560 Y88.743 E5.33806
G1 X80.970 Y89.064 E5.37818
G1 X80.848 Y89.552 E5.41694 F720.000
G1 X80.857 Y90.017 E5.45274
G1 X81.036 Y90.527 E5.49442
G1 X81.226 Y90.708 E5.51468
G1 X80.720 Y90.955 E5.55812
G1 X80.370 Y91.348 E5.59863
G1 X80.190 Y91.814 E5.63717
G1 X80.162 Y92.293 E5.67413
G1 X80.263 Y92.761 E5.71103
G1 X80.522 Y93.237 E5.75280
G1 X80.865 Y93.571 E5.78972
G1 X81.232 Y93.794 E5.82284
G1 X81.645 Y93.951 E5.85690
G1 X82.064 Y94.045 E5.88999
G1 X82.395 Y94.084 E5.91562
G1 X82.893 Y94.091 E5.95406
G1 X83.383 Y94.043 E5.99200
G1 X83.957 Y93.887 E6.03782
G1 X84.503 Y93.597 E6.08547
G1 X84.971 Y93.196 E6.13298
G1 X85.145 Y92.960 E6.15555
G1 X85.471 Y93.493 E6.20366
G1 X85.831 Y93.785 E6.23939
G1 X86.198 Y93.923 E6.26961
G1 X86.593 Y93.956 E6.30016
G1 X87.068 Y93.912 E6.33691
G1 X87.867 Y93.920 E6.39851
G1 X88.458 Y93.889 E6.44415
G1 X89.108 Y93.785 E6.49488
G1 X89.673 Y93.594 E6.54084
G1 X90.019 Y93.399 E6.57146
G1 X90.110 Y93.553 E6.58522
G1 X90.374 Y93.855 E6.61619
G1 X90.756 Y94.138 E6.65282
G1 X91.106 Y94.294 E6.68229
G1 X91.454 Y94.379 E6.70990
G1 X91.812 Y94.403 E6.73755
G1 X92.169 Y94.364 E6.76526
G1 X92.538 Y94.256 E6.79488
G1 X92.972 Y94.014 E6.83319
G1 X93.152 Y93.852 E6.85182
G1 X93.737 Y94.102 E6.90085
G1 X94.300 Y94.123 E6.94420
G1 X94.870 Y93.862 E6.99257
G1 X95.075 Y93.642 E7.01573
G1 X95.541 Y93.991 E7.06054
G1 X96.012 Y94.135 E7.09852
G1 X96.447 Y94.124 E7.13208
G1 X96.230 Y94.960 E7.19865
G1 X96.325 Y95.566 E7.24590
G1 X96.585 Y96.057 E7.28868
G1 X96.835 Y96.317 E7.31651
G1 X97.157 Y96.526 E7.34608
G1 X97.401 Y96.589 E7.36553
G1 X97.384 Y96.901 E7.38962
G1 X96.594 Y97.013 E7.45108
G1 X95.739 Y97.082 E7.51720
G1 X94.831 Y97.097 E7.58722
G1 X94.186 Y97.072 E7.63694
G1 X81.290 Y96.284 E8.63263
G1 E6.63263 F2400.00000
G92 E0
G1 X97.731 Y83.166 F15000.000
G1 E2.00000 F2400.00000
G1 X98.634 Y83.371 E2.07137 F720.000
G1 X99.391 Y83.595 E2.13218
G1 X100.392 Y83.966 E2.21445
G1 X101.199 Y84.332 E2.28279
G1 X102.063 Y84.796 E2.35836
G1 X102.742 Y85.218 E2.41999
G1 X103.610 Y85.842 E2.50238
G1 X104.363 Y86.472 E2.57800
G1 X104.999 Y87.083 E2.64596
G1 X105.337 Y87.450 E2.68445
G1 X102.878 Y87.445 E2.87396
G1 X102.568 Y87.467 E2.89792
G1 X102.185 Y87.550 E2.92810
G1 X101.742 Y87.769 E2.96618
G1 X101.561 Y87.627 E2.98390
G1 X101.218 Y87.482 E3.01259
G1 X100.769 Y87.433 E3.04737
G1 X100.251 Y87.587 E3.08903
G1 X99.880 Y87.879 E3.12545
G1 X99.595 Y88.243 E3.16110
G1 X99.128 Y87.780 E3.21178
G1 X98.825 Y87.601 E3.23889
G1 X98.433 Y87.470 E3.27078
G1 X97.872 Y87.448 E3.31400
G1 X97.380 Y87.605 E3.35383
G1 X97.153 Y87.797 E3.37675
G1 X96.670 Y87.489 E3.42083
G1 X96.000 Y87.434 E3.47266
G1 X95.451 Y87.669 E3.51871
G1 X95.181 Y87.893 E3.54573
G1 X95.004 Y87.723 E3.56466
G1 X94.516 Y87.480 E3.60668
G1 X94.052 Y87.435 E3.64261
G1 X93.540 Y87.550 E3.68302
G1 X93.095 Y87.820 E3.72315
G1 X92.749 Y88.276 E3.76730
G1 X92.630 Y88.704 E3.80149
G1 X92.658 Y89.219 E3.84127
G1 X92.795 Y89.625 E3.87433
G1 X92.925 Y89.888 E3.89692
G1 X93.346 Y90.629 E3.96259
G1 X93.114 Y90.834 E3.98646
G1 X92.841 Y90.630 E4.01275
G1 X92.518 Y90.467 E4.04060
G1 X92.148 Y90.358 E4.07031
G1 X91.643 Y90.326 E4.10930
G1 X91.657 Y89.980 E4.13596
G1 X91.634 Y89.393 E4.18124
G1 X91.524 Y88.696 E4.23561
G1 X91.425 Y88.341 E4.26400
G1 X91.242 Y87.877 E4.30246
G1 X90.923 Y87.333 E4.35103
G1 X90.554 Y86.903 E4.39473
G1 X90.080 Y86.525 E4.44144
G1 X89.547 Y86.264 E4.48720
G1 X88.947 Y86.108 E4.53499
G1 X88.400 Y86.036 E4.57748
G1 X86.695 Y85.997 E4.70893
G1 X86.236 Y86.046 E4.74450
G1 X85.694 Y86.256 E4.78926
G1 X85.100 Y86.837 E4.85335
G1 X84.778 Y86.491 E4.88977
G1 X84.513 Y86.286 E4.91560
G1 X84.135 Y86.083 E4.94868
G1 X83.822 Y85.971 E4.97432
G1 X83.400 Y85.880 E5.00757
G1 X83.033 Y85.841 E5.03604
G1 X82.527 Y85.839 E5.07500
G1 X82.127 Y85.883 E5.10599
G1 X81.691 Y85.981 E5.14049
G1 X81.282 Y86.142 E5.17432
G1 X80.999 Y86.299 E5.19928
G1 X80.804 Y86.446 E5.21809
G1 X80.571 Y86.237 E5.24226
G1 X80.185 Y86.063 E5.27491
G1 X79.862 Y86.009 E5.30017
G1 X76.512 Y86.020 E5.55832
G1 X75.848 Y85.973 E5.60956
G1 X75.349 Y86.038 E5.64840
G1 X74.942 Y86.278 E5.68479
G1 X74.683 Y86.552 E5.71389
G1 X74.498 Y86.394 E5.73261
G1 X73.997 Y86.104 E5.77723
G1 X73.538 Y85.945 E5.81466
G1 X73.028 Y85.855 E5.85459
G1 X72.288 Y85.846 E5.91163
G1 X71.885 Y85.899 E5.94290
G1 X71.462 Y86.003 E5.97648
G1 X70.895 Y86.243 E6.02395
G1 X70.488 Y86.504 E6.06120
G1 X70.143 Y86.791 E6.09583
G1 X70.143 Y85.078 E6.22786
G1 X70.177 Y84.859 E6.24498
G1 X70.253 Y84.675 E6.26029
G1 X70.429 Y84.484 E6.28029
G1 X70.647 Y84.388 E6.29868
G1 X70.864 Y84.353 E6.31558
G1 X94.207 Y82.926 E8.11790
G1 X95.056 Y82.902 E8.18338
G1 X96.042 Y82.936 E8.25940
G1 X96.830 Y83.015 E8.32043 F720.000
G1 X97.658 Y83.149 E8.38505
G1 E6.38505 F2400.00000
G92 E0
G1 X100.982 Y93.091 F15000.000
G1 E2.00000 F2400.00000
G1 X101.262 Y93.100 E2.02158 F600.000
G1 X101.309 Y93.272 E2.03534 F600.000
G1 X101.530 Y93.628 E2.06761
G1 X101.856 Y93.916 E2.10112
G1 X102.193 Y94.074 E2.12978
G1 X102.600 Y94.142 E2.16164
G1 X103.222 Y94.111 E2.20963
G1 X103.316 Y94.382 E2.23171
G1 X102.824 Y94.729 E2.27809
G1 X102.334 Y95.043 E2.32292
G1 X101.722 Y95.397 E2.37744
G1 X100.930 Y95.798 E2.44585
G1 X100.084 Y96.158 E2.51670
G1 X99.687 Y96.297 E2.54907
G1 X99.523 Y96.052 E2.57179
G1 X99.862 Y95.670 E2.61110
G1 X100.091 Y95.304 E2.64441
G1 X100.247 Y94.985 E2.67175
G1 X100.957 Y93.161 E2.82258
G1 E0.82258 F2400.00000
G92 E0
G1 X107.045 Y90.238 F15000.000
G1 E2.00000 F2400.00000
G1 X106.452 Y91.169 E2.08504 F600.000
G1 X106.179 Y91.539 E2.12046
G1 X105.858 Y91.295 E2.15150
G1 X105.445 Y91.139 E2.18552
G1 X105.954 Y90.424 E2.25312
G1 X106.239 Y89.988 E2.29330
G1 X106.409 Y89.604 E2.32566
G1 X106.536 Y88.932 E2.37834
G1 X107.100 Y89.861 E2.46213
G1 X107.138 Y90.007 E2.47375 F600.000
G1 X107.083 Y90.174 E2.48727
G1 X107.630 Y90.498 F15000.000
G1 X107.395 Y90.894 E2.52276 F720.000
G1 X106.973 Y91.533 E2.58174
G1 X106.563 Y92.088 E2.63493
G1 X106.024 Y92.755 E2.70105
G1 X105.857 Y92.187 E2.74665
G1 X105.708 Y91.979 E2.76634
G1 X105.547 Y91.857 E2.78196
G1 X105.231 Y91.737 E2.80798
G1 X104.746 Y91.683 E2.84559
G1 X104.261 Y91.706 E2.88301
G1 X105.429 Y90.066 E3.03816
G1 X105.679 Y89.683 E3.07342
G1 X105.798 Y89.414 E3.09612
G1 X105.858 Y89.095 E3.12112
G1 X105.842 Y88.795 E3.14429
G1 X105.733 Y88.475 E3.17030
G1 X105.500 Y88.221 E3.19687
G1 X105.253 Y88.118 E3.21747
G1 X105.057 Y88.085 E3.23278
G1 X102.900 Y88.081 E3.39906
G1 X102.658 Y88.098 E3.41774
G1 X102.396 Y88.155 E3.43836
G1 X102.161 Y88.271 E3.45860
G1 X101.972 Y88.468 E3.47961
G1 X101.771 Y88.951 E3.51998
G1 X101.566 Y88.494 E3.55863
G1 X101.437 Y88.336 E3.57432
G1 X101.236 Y88.180 E3.59394
G1 X101.056 Y88.104 E3.60903
G1 X100.828 Y88.078 E3.62670
G1 X100.549 Y88.162 E3.64913
G1 X100.333 Y88.331 E3.67026
G1 X100.156 Y88.557 E3.69239
G1 X100.045 Y88.756 E3.70996
G1 X99.909 Y89.081 E3.73709
G1 X99.543 Y90.141 E3.82351
G1 X99.233 Y89.341 E3.88965
G1 X99.083 Y88.789 E3.93368
G1 X98.930 Y88.479 E3.96033
G1 X98.737 Y88.287 E3.98131
G1 X98.559 Y88.183 E3.99718
G1 X98.317 Y88.101 E4.01689
G1 X97.959 Y88.087 E4.04445
G1 X97.693 Y88.173 E4.06599
G1 X97.491 Y88.343 E4.08639
G1 X97.386 Y88.521 E4.10230
G1 X97.318 Y88.783 E4.12315
G1 X97.037 Y88.796 E4.14483
G1 X96.952 Y88.559 E4.16426
G1 X96.766 Y88.305 E4.18852
G1 X96.461 Y88.110 E4.21641
G1 X96.105 Y88.081 E4.24396
G1 X95.786 Y88.217 E4.27073
G1 X95.565 Y88.400 E4.29280
G1 X95.359 Y88.650 E4.31777
G1 X95.190 Y88.955 E4.34467
G1 X94.839 Y88.447 E4.39226
G1 X94.633 Y88.248 E4.41430
G1 X94.338 Y88.101 E4.43972
G1 X94.092 Y88.077 E4.45878
G1 X93.781 Y88.147 E4.48331
G1 X93.528 Y88.300 E4.50609
G1 X93.329 Y88.563 E4.53153
G1 X93.270 Y88.774 E4.54836
G1 X93.288 Y89.098 E4.57341
G1 X93.383 Y89.382 E4.59648
G1 X93.956 Y90.415 E4.68746
G1 X94.188 Y90.766 E4.71992
G1 X93.862 Y91.226 E4.76340
G1 X93.254 Y92.294 E4.85811
G1 X93.006 Y91.710 E4.90697
G1 X92.872 Y91.501 E4.92611
G1 X92.702 Y91.320 E4.94526
G1 X92.505 Y91.173 E4.96420
G1 X92.283 Y91.061 E4.98335
G1 X92.037 Y90.988 E5.00313
G1 X91.683 Y90.965 E5.03048
G1 X91.432 Y91.004 E5.05006
G1 X90.885 Y91.190 E5.09457
G1 X91.006 Y90.351 E5.15992
G1 X91.021 Y89.980 E5.18849
G1 X91.000 Y89.455 E5.22898
G1 X90.902 Y88.832 E5.27763
G1 X90.821 Y88.544 E5.30065
G1 X90.668 Y88.156 E5.33279
G1 X90.403 Y87.704 E5.37318
G1 X90.110 Y87.362 E5.40787
G1 X89.738 Y87.065 E5.44455
G1 X89.325 Y86.863 E5.48002
G1 X88.825 Y86.733 E5.51986
G1 X88.351 Y86.671 E5.55664
G1 X86.721 Y86.634 E5.68232
G1 X86.387 Y86.669 E5.70824
G1 X86.045 Y86.801 E5.73643
G1 X85.798 Y87.043 E5.76310
G1 X85.700 Y87.326 E5.78613
G1 X85.695 Y87.595 E5.80690
G1 X85.734 Y88.058 E5.84274
G1 X85.730 Y91.663 E6.12049
G1 X85.712 Y92.272 E6.16748
G1 X85.739 Y92.575 E6.19092
G1 X85.818 Y92.842 E6.21242
G1 X85.956 Y93.068 E6.23282
G1 X86.151 Y93.227 E6.25219
G1 X86.339 Y93.297 E6.26765
G1 X86.590 Y93.318 E6.28703
G1 X87.041 Y93.276 E6.32197
G1 X87.853 Y93.284 E6.38459
G1 X88.391 Y93.256 E6.42607
G1 X88.955 Y93.166 E6.47007
G1 X89.413 Y93.011 E6.50738
G1 X89.741 Y92.826 E6.53637
G1 X89.949 Y92.669 E6.55645
G1 X90.339 Y92.310 E6.59727
G1 X90.416 Y92.733 E6.63038
G1 X90.501 Y92.964 E6.64936
G1 X90.628 Y93.180 E6.66861
G1 X90.808 Y93.385 E6.68965
G1 X91.079 Y93.586 E6.71564
G1 X91.312 Y93.690 E6.73536
G1 X91.552 Y93.749 E6.75436
G1 X91.799 Y93.765 E6.77344
G1 X92.044 Y93.739 E6.79246
G1 X92.290 Y93.666 E6.81222
G1 X92.601 Y93.493 E6.83964
G1 X92.792 Y93.322 E6.85939
G1 X92.949 Y93.120 E6.87915
G1 X93.082 Y92.839 E6.90309
G1 X93.549 Y93.331 E6.95536
G1 X93.879 Y93.471 E6.98296
G1 X94.172 Y93.482 E7.00561
G1 X94.491 Y93.336 E7.03264
G1 X94.740 Y93.070 E7.06073
G1 X95.137 Y92.478 E7.11562
G1 X95.404 Y92.960 E7.15805
G1 X95.617 Y93.254 E7.18605
G1 X95.833 Y93.415 E7.20681
G1 X96.099 Y93.497 E7.22832
G1 X96.387 Y93.490 E7.25047
G1 X96.662 Y93.400 E7.27277
G1 X96.928 Y93.185 E7.29918
G1 X97.061 Y92.919 E7.32208
G1 X97.098 Y92.628 E7.34468
G1 X97.053 Y92.326 E7.36820
G1 X96.901 Y91.988 E7.39676
G1 X96.222 Y90.858 E7.49832
G1 X96.185 Y90.708 E7.51027
G1 X96.260 Y90.482 E7.52863
G1 X96.945 Y89.322 E7.63241
G1 X97.033 Y89.081 E7.65217
G1 X97.332 Y89.117 E7.67542
G1 X97.352 Y89.289 E7.68878
G1 X97.414 Y89.509 E7.70636
G1 X97.750 Y90.344 E7.77575
G1 X98.345 Y91.951 E7.90782
G1 X98.617 Y92.571 E7.95995
G1 X98.647 Y92.721 E7.97176
G1 X98.602 Y92.884 E7.98480
G1 X98.417 Y93.270 E8.01784
G1 X98.201 Y93.836 E8.06449
G1 X98.084 Y94.031 E8.08204
G1 X97.930 Y94.160 E8.09749
G1 X97.803 Y94.217 E8.10825
G1 X97.309 Y94.360 E8.14786
G1 X97.101 Y94.496 E8.16704
G1 X96.963 Y94.666 E8.18389
G1 X96.878 Y94.992 E8.20989
G1 X96.936 Y95.362 E8.23875
G1 X97.105 Y95.681 E8.26650
G1 X97.243 Y95.824 E8.28180
G1 X97.416 Y95.936 E8.29775
G1 X97.752 Y96.023 E8.32446
G1 X98.141 Y95.993 E8.35453
G1 X98.596 Y95.856 E8.39116
G1 X98.896 Y95.708 E8.41695
G1 X99.145 Y95.520 E8.44098
G1 X99.351 Y95.288 E8.46489
G1 X99.535 Y94.994 E8.49161
G1 X99.665 Y94.728 E8.51444
G1 X100.295 Y93.129 E8.64690
G1 X101.405 Y89.973 E8.90475
G1 X101.615 Y89.515 E8.94355
G1 X101.761 Y89.098 E8.97760
G1 X102.061 Y89.593 E9.02217
G1 X102.355 Y89.776 E9.04887
G1 X102.725 Y89.855 E9.07802
G1 X103.387 Y89.889 E9.12912
G1 X102.236 Y91.474 E9.28012
G1 X102.008 Y91.816 E9.31179
G1 X101.875 Y92.091 E9.33534
G1 X101.804 Y92.370 E9.35749
G1 X101.801 Y92.668 E9.38044
